X: 80
T: 76. FINE TIMES AT OUR HOUSE
B: Sam Bayard, "Hill Country Tunes" 1944 #76
S: Played by Irvin Yaugher Jr, Mt Independence, PA, Oct 19 1943. As played by his great-uncle.
N: The title of this tune has the appearance of being an importation from the British Isles; and
N: no doubt the melody is too.  Another set, with a variant form of the title, and a different
N: second part, is in Bayard Coll., No.227, from Center County.  It is case in a different mode
N: from this, which disguises it greatly.
N:   "Bub" Yaugher knew the following rhyme associated with this tune:
N:      Possum up a gum stump,
N:      Coonie in the holler,
N:      Devil's on the other side --
N:      Don't you hear him holler?
R: reel
M: 4/4
L: 1/8
Z: 2010 John Chambers <jc:trillian.mit.edu>
K: Ador
E2- |\
E^/FED [E2C2][E2C2] | ABAG ABc"a."E- | E^/FED [E2C2][E2C2] | ABAG ^/FDD2 |
E^/FED [E2C2][E2C2] | ABAG AB^/cd | e3f e2d2 | ^/cA {A}BA A2 :: z2 |
e2af e2"b."d2 | ^cdef ^/g2z2  | e2af e2d2 | ^cde2 a2z2 |
e2af e2d2 | ^cdef ^/g2z2  | e2zg e2d2 | ^/cAB"c."G A2 |]
P: Var:
"a."z || "b."d^c || "c."^G |]

%%sep 2 1 500
%%sep 1 1 500

